img/macbook.svg

<svg width="1008" height="635" fill="none" xmlns="http://www.w3.org/2000/svg"><g filter="url(#a)"><ellipse cx="504.5" cy="586" rx="452.5" ry="5" fill="#000"/></g><path d="M99 28c0-14.912 12.088-27 27-27h760c14.912 0 27 12.088 27 27v522a3 3 0 0 1-3 3H102a3 3 0 0 1-3-3V28Z" fill="#1A202C" stroke="#4A5568" stroke-width="2"/><path d="M103 27c0-12.15 9.85-22 22-22h762c12.15 0 22 9.85 22 22v506H103V27Z" fill="#000"/><path d="M464.173 535.545V545h1.643v-6.509h.088l2.613 6.481h1.228l2.613-6.467h.087V545h1.644v-9.455h-2.096l-2.807 6.851h-.111l-2.806-6.851h-2.096Zm13.748 9.598c1.112 0 1.777-.522 2.082-1.117h.055V545h1.607v-4.746c0-1.874-1.528-2.437-2.881-2.437-1.491 0-2.636.665-3.005 1.957l1.56.222c.166-.485.637-.9 1.454-.9.776 0 1.2.397 1.2 1.094v.027c0 .48-.503.504-1.754.637-1.376.148-2.691.559-2.691 2.156 0 1.394 1.02 2.133 2.373 2.133Zm.434-1.228c-.698 0-1.196-.318-1.196-.932 0-.642.559-.91 1.306-1.016.439-.06 1.316-.171 1.533-.346v.835c0 .79-.637 1.459-1.643 1.459Zm8.083 1.223c1.782 0 2.918-1.057 3.038-2.562h-1.598c-.143.762-.692 1.201-1.426 1.201-1.043 0-1.717-.873-1.717-2.322 0-1.432.687-2.29 1.717-2.29.803 0 1.297.517 1.426 1.2h1.598c-.116-1.537-1.316-2.548-3.047-2.548-2.078 0-3.389 1.5-3.389 3.665 0 2.147 1.279 3.656 3.398 3.656Zm4.484-.138h1.643v-1.117h.097c.263.517.813 1.242 2.031 1.242 1.672 0 2.923-1.325 2.923-3.661 0-2.364-1.288-3.647-2.927-3.647-1.251 0-1.773.752-2.027 1.265h-.069v-3.537h-1.671V545Zm1.639-3.545c0-1.376.591-2.267 1.666-2.267 1.113 0 1.685.946 1.685 2.267 0 1.329-.581 2.299-1.685 2.299-1.066 0-1.666-.924-1.666-2.299Zm9.568 3.683c2.078 0 3.398-1.463 3.398-3.656 0-2.197-1.32-3.665-3.398-3.665-2.077 0-3.397 1.468-3.397 3.665 0 2.193 1.32 3.656 3.397 3.656Zm.01-1.338c-1.15 0-1.713-1.025-1.713-2.322 0-1.298.563-2.336 1.713-2.336 1.131 0 1.694 1.038 1.694 2.336 0 1.297-.563 2.322-1.694 2.322Zm7.9 1.338c2.077 0 3.397-1.463 3.397-3.656 0-2.197-1.32-3.665-3.397-3.665-2.078 0-3.398 1.468-3.398 3.665 0 2.193 1.32 3.656 3.398 3.656Zm.009-1.338c-1.15 0-1.713-1.025-1.713-2.322 0-1.298.563-2.336 1.713-2.336 1.131 0 1.694 1.038 1.694 2.336 0 1.297-.563 2.322-1.694 2.322Zm4.807 1.2h1.671v-2.382l.609-.651 2.17 3.033h1.999l-2.908-4.03 2.746-3.061h-1.952l-2.549 2.848h-.115v-5.212h-1.671V545Zm10.7 0h1.712v-3.195h1.81c2.184 0 3.356-1.311 3.356-3.13 0-1.805-1.159-3.13-3.333-3.13h-3.545V545Zm1.712-4.603v-3.42h1.57c1.283 0 1.851.692 1.851 1.698 0 1.007-.568 1.722-1.842 1.722h-1.579Zm6.58 4.603h1.671v-4.169c0-.9.679-1.537 1.597-1.537.282 0 .633.051.776.097v-1.537a3.975 3.975 0 0 0-.6-.046c-.813 0-1.491.461-1.75 1.283h-.074v-1.182h-1.62V545Zm7.955.138c2.078 0 3.398-1.463 3.398-3.656 0-2.197-1.32-3.665-3.398-3.665-2.077 0-3.397 1.468-3.397 3.665 0 2.193 1.32 3.656 3.397 3.656Zm.01-1.338c-1.15 0-1.713-1.025-1.713-2.322 0-1.298.563-2.336 1.713-2.336 1.131 0 1.694 1.038 1.694 2.336 0 1.297-.563 2.322-1.694 2.322Z" fill="#A0AEC0"/><path d="M0 552a2 2 0 0 1 2-2h1004c1.1 0 2 .895 2 2v16H0v-16Z" fill="#A3ACB1"/><path d="M0 552a2 2 0 0 1 2-2h1004c1.1 0 2 .895 2 2v16H0v-16Z" fill="url(#b)"/><path d="M0 568h1008l-20.354 4.105a400.021 400.021 0 0 1-79.08 7.895H97.909a400.007 400.007 0 0 1-86.772-9.525L0 568Z" fill="#647279"/><path d="M0 568h1008l-20.354 4.105a400.021 400.021 0 0 1-79.08 7.895H97.909a400.007 400.007 0 0 1-86.772-9.525L0 568Z" fill="url(#c)"/><path fill-rule="evenodd" clip-rule="evenodd" d="M421.033 550c.514 7.818 7.019 14 14.967 14h137c7.948 0 14.453-6.182 14.967-14H421.033Z" fill="#96A1A8"/><path fill-rule="evenodd" clip-rule="evenodd" d="M421.033 550c.514 7.818 7.019 14 14.967 14h137c7.948 0 14.453-6.182 14.967-14H421.033Z" fill="url(#d)"/><defs><linearGradient id="b" x1="0" y1="559" x2="1008" y2="559" gradientUnits="userSpaceOnUse"><stop stop-color="#0D1012"/><stop offset=".03" stop-color="#CAD4DB"/><stop offset=".063" stop-color="#242729"/><stop offset=".134" stop-color="#A3ACB1"/><stop offset=".866" stop-color="#A3ACB1"/><stop offset=".942" stop-color="#242729"/><stop offset=".971" stop-color="#CAD4DB"/><stop offset=".996" stop-color="#0D1012"/></linearGradient><linearGradient id="c" x1="504" y1="568" x2="504" y2="580" gradientUnits="userSpaceOnUse"><stop stop-color="#7A7F83"/><stop offset="1" stop-color="#0B0B0E"/></linearGradient><linearGradient id="d" x1="437.5" y1="558.5" x2="574.5" y2="558.5" gradientUnits="userSpaceOnUse"><stop stop-color="#3C3C3C"/><stop offset=".318" stop-color="#3C3C3C" stop-opacity="0"/><stop offset=".661" stop-color="#3C3C3C" stop-opacity="0"/><stop offset="1" stop-color="#444"/></linearGradient><filter id="a" x="8" y="537" width="993" height="98" filterUnits="userSpaceOnUse" color-interpolation-filters="sRGB"><feFlood flood-opacity="0" result="BackgroundImageFix"/><feBlend in="SourceGraphic" in2="BackgroundImageFix" result="shape"/><feGaussianBlur stdDeviation="22" result="effect1_foregroundBlur_181_202"/></filter></defs></svg>

<svg width="1008" height="635" viewBox="0 0 1008 635" fill="none" xmlns="http://www.w3.org/2000/svg">
<g filter="url(#filter0_f_181_202)">
<ellipse cx="504.5" cy="586" rx="452.5" ry="5" fill="black"/>
</g>
<path d="M99 28C99 13.0883 111.088 1 126 1H886C900.912 1 913 13.0883 913 28V550C913 551.657 911.657 553 910 553H102C100.343 553 99 551.657 99 550V28Z" fill="#1A202C" stroke="#4A5568" stroke-width="2"/>
<path d="M103 27C103 14.8497 112.85 5 125 5H887C899.15 5 909 14.8497 909 27V533H103V27Z" fill="black"/>
<path d="M464.173 535.545V545H465.816V538.491H465.904L468.517 544.972H469.745L472.358 538.505H472.445V545H474.089V535.545H471.993L469.186 542.396H469.075L466.269 535.545H464.173ZM477.921 545.143C479.033 545.143 479.698 544.621 480.003 544.026H480.058V545H481.665V540.254C481.665 538.38 480.137 537.817 478.784 537.817C477.293 537.817 476.148 538.482 475.779 539.774L477.339 539.996C477.505 539.511 477.976 539.096 478.793 539.096C479.569 539.096 479.993 539.493 479.993 540.19V540.217C479.993 540.697 479.49 540.721 478.239 540.854C476.863 541.002 475.548 541.413 475.548 543.01C475.548 544.404 476.568 545.143 477.921 545.143ZM478.355 543.915C477.657 543.915 477.159 543.597 477.159 542.983C477.159 542.341 477.718 542.073 478.465 541.967C478.904 541.907 479.781 541.796 479.998 541.621V542.456C479.998 543.246 479.361 543.915 478.355 543.915ZM486.438 545.138C488.22 545.138 489.356 544.081 489.476 542.576H487.878C487.735 543.338 487.186 543.777 486.452 543.777C485.409 543.777 484.735 542.904 484.735 541.455C484.735 540.023 485.422 539.165 486.452 539.165C487.255 539.165 487.749 539.682 487.878 540.365H489.476C489.36 538.828 488.16 537.817 486.429 537.817C484.351 537.817 483.04 539.317 483.04 541.482C483.04 543.629 484.319 545.138 486.438 545.138ZM490.922 545H492.565V543.883H492.662C492.925 544.4 493.475 545.125 494.693 545.125C496.365 545.125 497.616 543.8 497.616 541.464C497.616 539.1 496.328 537.817 494.689 537.817C493.438 537.817 492.916 538.569 492.662 539.082H492.593V535.545H490.922V545ZM492.561 541.455C492.561 540.079 493.152 539.188 494.227 539.188C495.34 539.188 495.912 540.134 495.912 541.455C495.912 542.784 495.331 543.754 494.227 543.754C493.161 543.754 492.561 542.83 492.561 541.455ZM502.129 545.138C504.207 545.138 505.527 543.675 505.527 541.482C505.527 539.285 504.207 537.817 502.129 537.817C500.052 537.817 498.732 539.285 498.732 541.482C498.732 543.675 500.052 545.138 502.129 545.138ZM502.139 543.8C500.989 543.8 500.426 542.775 500.426 541.478C500.426 540.18 500.989 539.142 502.139 539.142C503.27 539.142 503.833 540.18 503.833 541.478C503.833 542.775 503.27 543.8 502.139 543.8ZM510.039 545.138C512.116 545.138 513.436 543.675 513.436 541.482C513.436 539.285 512.116 537.817 510.039 537.817C507.961 537.817 506.641 539.285 506.641 541.482C506.641 543.675 507.961 545.138 510.039 545.138ZM510.048 543.8C508.898 543.8 508.335 542.775 508.335 541.478C508.335 540.18 508.898 539.142 510.048 539.142C511.179 539.142 511.742 540.18 511.742 541.478C511.742 542.775 511.179 543.8 510.048 543.8ZM514.855 545H516.526V542.618L517.135 541.967L519.305 545H521.304L518.396 540.97L521.142 537.909H519.19L516.641 540.757H516.526V535.545H514.855V545ZM525.555 545H527.267V541.805H529.077C531.261 541.805 532.433 540.494 532.433 538.675C532.433 536.87 531.274 535.545 529.1 535.545H525.555V545ZM527.267 540.397V536.977H528.837C530.12 536.977 530.688 537.669 530.688 538.675C530.688 539.682 530.12 540.397 528.846 540.397H527.267ZM533.847 545H535.518V540.831C535.518 539.931 536.197 539.294 537.115 539.294C537.397 539.294 537.748 539.345 537.891 539.391V537.854C537.739 537.826 537.475 537.808 537.291 537.808C536.478 537.808 535.8 538.269 535.541 539.091H535.467V537.909H533.847V545ZM541.802 545.138C543.88 545.138 545.2 543.675 545.2 541.482C545.2 539.285 543.88 537.817 541.802 537.817C539.725 537.817 538.405 539.285 538.405 541.482C538.405 543.675 539.725 545.138 541.802 545.138ZM541.812 543.8C540.662 543.8 540.099 542.775 540.099 541.478C540.099 540.18 540.662 539.142 541.812 539.142C542.943 539.142 543.506 540.18 543.506 541.478C543.506 542.775 542.943 543.8 541.812 543.8Z" fill="#A0AEC0"/>
<path d="M0 552C0 550.895 0.895431 550 2 550H1006C1007.1 550 1008 550.895 1008 552V568H0V552Z" fill="#A3ACB1"/>
<path d="M0 552C0 550.895 0.895431 550 2 550H1006C1007.1 550 1008 550.895 1008 552V568H0V552Z" fill="url(#paint0_linear_181_202)"/>
<path d="M0 568H1008L987.646 572.105C961.613 577.355 935.123 580 908.566 580H97.9089C68.724 580 39.6267 576.806 11.1367 570.475L0 568Z" fill="#647279"/>
<path d="M0 568H1008L987.646 572.105C961.613 577.355 935.123 580 908.566 580H97.9089C68.724 580 39.6267 576.806 11.1367 570.475L0 568Z" fill="url(#paint1_linear_181_202)"/>
<path fill-rule="evenodd" clip-rule="evenodd" d="M421.033 550C421.547 557.818 428.052 564 436 564H573C580.948 564 587.453 557.818 587.967 550H421.033Z" fill="#96A1A8"/>
<path fill-rule="evenodd" clip-rule="evenodd" d="M421.033 550C421.547 557.818 428.052 564 436 564H573C580.948 564 587.453 557.818 587.967 550H421.033Z" fill="url(#paint2_linear_181_202)"/>
<defs>
<filter id="filter0_f_181_202" x="8" y="537" width="993" height="98" filterUnits="userSpaceOnUse" color-interpolation-filters="sRGB">
<feFlood flood-opacity="0" result="BackgroundImageFix"/>
<feBlend mode="normal" in="SourceGraphic" in2="BackgroundImageFix" result="shape"/>
<feGaussianBlur stdDeviation="22" result="effect1_foregroundBlur_181_202"/>
</filter>
<linearGradient id="paint0_linear_181_202" x1="-1.94452e-10" y1="559" x2="1008" y2="559" gradientUnits="userSpaceOnUse">
<stop stop-color="#0D1012"/>
<stop offset="0.0295345" stop-color="#CAD4DB"/>
<stop offset="0.0625" stop-color="#242729"/>
<stop offset="0.133609" stop-color="#A3ACB1"/>
<stop offset="0.865967" stop-color="#A3ACB1"/>
<stop offset="0.941937" stop-color="#242729"/>
<stop offset="0.971275" stop-color="#CAD4DB"/>
<stop offset="0.996436" stop-color="#0D1012"/>
</linearGradient>
<linearGradient id="paint1_linear_181_202" x1="504" y1="568" x2="504" y2="580" gradientUnits="userSpaceOnUse">
<stop stop-color="#7A7F83"/>
<stop offset="1" stop-color="#0B0B0E"/>
</linearGradient>
<linearGradient id="paint2_linear_181_202" x1="437.5" y1="558.5" x2="574.5" y2="558.5" gradientUnits="userSpaceOnUse">
<stop stop-color="#3C3C3C"/>
<stop offset="0.317518" stop-color="#3C3C3C" stop-opacity="0"/>
<stop offset="0.660584" stop-color="#3C3C3C" stop-opacity="0"/>
<stop offset="1" stop-color="#444444"/>
</linearGradient>
</defs>
</svg>
